X:24
T:Polska från Västermanland
T:Svenska Folkdansar H4 nr 24
O:Västermanland
B:Traditioner av Svenska Folkdansar Häfte 4, nr 24
R:Polska
Z:Nils L
U:w=wedge
U:t=tenuto
M:3/4
L:1/16
K:D
A2Bc d2ef gfed | c2cd e2G2 F2E2 | F2d2 E2G2 {G/}F2ED | CDEC A,2A,2 A,4 | S
ABcA d2d2 d4 | ABcA d2d2 d4 | g2b2 e2g2 {g/}f2ed | cdec d4 D4 ]]
f2af d2d2 d4 | cdec A2A2 A4 | (G2B2) (E2G2) {G/}F2ED | CDEC A,2A,2 "^D.C. al Segno"A,4 ||

